svgs/sharp-solid/hands.svg

<svg xmlns="http://www.w3.org/2000/svg" viewBox="0 0 576 512"><!--! Font Awesome Pro 6.6.0 by @fontawesome - https://fontawesome.com License - https://fontawesome.com/license (Commercial License) Copyright 2024 Fonticons, Inc. --><path d="M544 128l0 32-.1 72.6c-.1 52.2-23.9 101-63.9 133c-.8-80.9-42.8-155.8-111.5-198.8l-46.6-29.1-34.2-21.4-39-67.5L236.7 28 278.3 4l12 20.8 84 145.5 20.8-12L331.8 48.8 319.8 28 361.4 4l12 20.8 63.2 109.5s0 0 0 0l43.3 75 0-49.3 0-32 64 .1zM259.9 116.2l-28.8 46.1-28.7-49.8-12-20.8 41.6-24 12 20.8 16 27.7zm-43.2 69.1L200 212l-23.4 0L156 176.2l-12-20.8 41.6-24 12 20.8 19.1 33.1zm61.1-37.4l27.1 17 60.2 37.6C416.7 234.7 448 291.2 448 352l0 8c0 83.9-68.1 152-152 152l-176 0-24 0 0-48 24 0 104 0 0-24L88 440l-24 0 0-48 24 0 136 0 0-24L56 368l-24 0 0-48 24 0 168 0 0-24L88 296l-24 0 0-48 24 0 136 0s0 0 0 0l93.2 0L271 219.1l-27.1-17 33.9-54.3z"/></svg>

<svg xmlns="http://www.w3.org/2000/svg" viewBox="0 0 576 512"><!--! Font Awesome Pro 6.4.0 by @fontawesome - https://fontawesome.com License - https://fontawesome.com/license (Commercial License) Copyright 2023 Fonticons, Inc. --><path d="M544 128l0 32-.1 72.6c-.1 52.2-23.9 101-63.9 133c-.8-80.9-42.8-155.8-111.5-198.8l-46.6-29.1-34.2-21.4-39-67.5L236.7 28 278.3 4l12 20.8 84 145.5 20.8-12L331.8 48.8 319.8 28 361.4 4l12 20.8 63.2 109.5 0 0 43.3 75 0-49.3 0-32 64 .1zM259.9 116.2l-28.8 46.1-28.7-49.8-12-20.8 41.6-24 12 20.8 16 27.7zm-43.2 69.1L200 212H176.7L156 176.2l-12-20.8 41.6-24 12 20.8 19.1 33.1zm61.1-37.4l27.1 17 60.2 37.6C416.7 234.7 448 291.2 448 352v8c0 83.9-68.1 152-152 152H120 96V464h24H224V440H88 64V392H88 224V368H56 32V320H56 224V296H88 64V248H88 224v0h93.2L271 219.1l-27.1-17 33.9-54.3z"/></svg>
